tools/download-figma-icons/icons/outlined-large/calendar.svg

<svg width="64" height="64" viewBox="0 0 64 64" fill="none" xmlns="http://www.w3.org/2000/svg">
<path fill-rule="evenodd" clip-rule="evenodd" d="M58.949 60.9497H5.05956C3.92957 60.9497 3.00058 60.0187 3.00058 58.8887V24.503H61V58.8887C61 60.0187 60.08 60.9497 58.949 60.9497ZM5.05956 10.0001H10.5005V12.5001C10.5005 14.9791 12.5195 17.0001 15.0005 17.0001C17.4894 17.0001 19.5004 14.9791 19.5004 12.5001V10.0001H44.5002V12.5001C44.5002 14.9791 46.5192 17.0001 49.0001 17.0001C51.4891 17.0001 53.5001 14.9791 53.5001 12.5001V10.0001H58.949C60.08 10.0001 61 10.9201 61 12.0591V21.503H3.00058V12.0591C3.00058 10.9201 3.92957 10.0001 5.05956 10.0001ZM13.5005 7.00018V4.5002C13.5005 3.67921 14.1795 3.00022 15.0005 3.00022C15.8305 3.00022 16.5005 3.67921 16.5005 4.5002V7.00018V10.0001V12.5001C16.5005 13.3301 15.8305 14.0001 15.0005 14.0001C14.1795 14.0001 13.5005 13.3301 13.5005 12.5001V10.0001V7.00018ZM47.5002 7.00018V4.5002C47.5002 3.67921 48.1792 3.00022 49.0001 3.00022C49.8301 3.00022 50.5001 3.67921 50.5001 4.5002V7.00018V10.0001V12.5001C50.5001 13.3301 49.8301 14.0001 49.0001 14.0001C48.1792 14.0001 47.5002 13.3301 47.5002 12.5001V10.0001V7.00018ZM58.949 7.00018H53.5001V4.5002C53.5001 2.01922 51.4891 0.000244138 49.0001 0.000244138C46.5192 0.000244138 44.5002 2.01922 44.5002 4.5002V7.00018H19.5004V4.5002C19.5004 2.01922 17.4894 0.000244138 15.0005 0.000244138C12.5195 0.000244138 10.5005 2.01922 10.5005 4.5002V7.00018H5.05956C2.26959 7.00018 0.000610346 9.26916 0.000610346 12.0591V58.8887C0.000610346 61.6787 2.26959 63.9496 5.05956 63.9496H58.949C61.739 63.9496 64 61.6787 64 58.8887V12.0591C64 9.26916 61.739 7.00018 58.949 7.00018ZM12.5032 31.2331C11.1232 31.2331 10.0032 32.3521 10.0032 33.7331C10.0032 35.1131 11.1232 36.2331 12.5032 36.2331C13.8842 36.2331 15.0032 35.1131 15.0032 33.7331C15.0032 32.3521 13.8842 31.2331 12.5032 31.2331ZM23.0031 33.7331C23.0031 32.3521 24.1231 31.2331 25.5031 31.2331C26.8841 31.2331 28.003 32.3521 28.003 33.7331C28.003 35.1131 26.8841 36.2331 25.5031 36.2331C24.1231 36.2331 23.0031 35.1131 23.0031 33.7331ZM38.5029 31.2331C37.123 31.2331 36.003 32.3521 36.003 33.7331C36.003 35.1131 37.123 36.2331 38.5029 36.2331C39.8839 36.2331 41.0029 35.1131 41.0029 33.7331C41.0029 32.3521 39.8839 31.2331 38.5029 31.2331ZM49.0028 33.445C49.0028 32.064 50.1228 30.945 51.5028 30.945C52.8838 30.945 54.0028 32.064 54.0028 33.445C54.0028 34.826 52.8838 35.945 51.5028 35.945C50.1228 35.945 49.0028 34.826 49.0028 33.445ZM12.5032 39.945C11.1232 39.945 10.0032 41.064 10.0032 42.4449C10.0032 43.8259 11.1232 44.9449 12.5032 44.9449C13.8842 44.9449 15.0032 43.8259 15.0032 42.4449C15.0032 41.064 13.8842 39.945 12.5032 39.945ZM23.0031 42.4449C23.0031 41.064 24.1231 39.945 25.5031 39.945C26.8841 39.945 28.003 41.064 28.003 42.4449C28.003 43.8259 26.8841 44.9449 25.5031 44.9449C24.1231 44.9449 23.0031 43.8259 23.0031 42.4449ZM38.5029 39.945C37.123 39.945 36.003 41.064 36.003 42.4449C36.003 43.8259 37.123 44.9449 38.5029 44.9449C39.8839 44.9449 41.0029 43.8259 41.0029 42.4449C41.0029 41.064 39.8839 39.945 38.5029 39.945ZM49.0028 42.4449C49.0028 41.064 50.1228 39.945 51.5028 39.945C52.8838 39.945 54.0028 41.064 54.0028 42.4449C54.0028 43.8259 52.8838 44.9449 51.5028 44.9449C50.1228 44.9449 49.0028 43.8259 49.0028 42.4449ZM12.5032 48.9449C11.1232 48.9449 10.0032 50.0639 10.0032 51.4449C10.0032 52.8258 11.1232 53.9448 12.5032 53.9448C13.8842 53.9448 15.0032 52.8258 15.0032 51.4449C15.0032 50.0639 13.8842 48.9449 12.5032 48.9449ZM23.0031 51.4449C23.0031 50.0639 24.1231 48.9449 25.5031 48.9449C26.8841 48.9449 28.003 50.0639 28.003 51.4449C28.003 52.8258 26.8841 53.9448 25.5031 53.9448C24.1231 53.9448 23.0031 52.8258 23.0031 51.4449ZM38.5029 48.9449C37.123 48.9449 36.003 50.0639 36.003 51.4449C36.003 52.8258 37.123 53.9448 38.5029 53.9448C39.8839 53.9448 41.0029 52.8258 41.0029 51.4449C41.0029 50.0639 39.8839 48.9449 38.5029 48.9449ZM49.0028 51.4449C49.0028 50.0639 50.1228 48.9449 51.5028 48.9449C52.8838 48.9449 54.0028 50.0639 54.0028 51.4449C54.0028 52.8258 52.8838 53.9448 51.5028 53.9448C50.1228 53.9448 49.0028 52.8258 49.0028 51.4449Z" fill="black"/>
</svg>

<svg width="64" height="64" viewBox="0 0 64 64" fill="none" xmlns="http://www.w3.org/2000/svg"><path fill-rule="evenodd" clip-rule="evenodd" d="M58.949 60.95H5.059a2.07 2.07 0 0 1-2.058-2.061V24.503H61v34.386c0 1.13-.92 2.06-2.051 2.06ZM5.059 10h5.442v2.5c0 2.48 2.019 4.5 4.5 4.5 2.488 0 4.5-2.02 4.5-4.5V10h25v2.5c0 2.48 2.018 4.5 4.5 4.5 2.488 0 4.5-2.02 4.5-4.5V10h5.448C60.08 10 61 10.92 61 12.06v9.443H3v-9.444C3 10.92 3.93 10 5.06 10Zm8.442-3V4.5c0-.82.679-1.5 1.5-1.5.83 0 1.5.68 1.5 1.5v8c0 .83-.67 1.5-1.5 1.5-.821 0-1.5-.67-1.5-1.5V7Zm34 0V4.5c0-.82.678-1.5 1.5-1.5.83 0 1.5.68 1.5 1.5v8c0 .83-.67 1.5-1.5 1.5-.822 0-1.5-.67-1.5-1.5V7Zm11.448 0H53.5V4.5A4.5 4.5 0 0 0 49 0c-2.48 0-4.5 2.02-4.5 4.5V7h-25V4.5A4.5 4.5 0 0 0 15 0a4.505 4.505 0 0 0-4.5 4.5V7H5.06A5.064 5.064 0 0 0 0 12.06v46.829c0 2.79 2.27 5.06 5.06 5.06h53.889c2.79 0 5.051-2.27 5.051-5.06v-46.83A5.057 5.057 0 0 0 58.949 7ZM12.503 31.233a2.5 2.5 0 1 0 0 5 2.5 2.5 0 0 0 0-5Zm10.5 2.5a2.5 2.5 0 1 1 5 0 2.5 2.5 0 0 1-5 0Zm15.5-2.5a2.5 2.5 0 1 0 0 5 2.5 2.5 0 0 0 0-5Zm10.5 2.212a2.5 2.5 0 1 1 5 0 2.5 2.5 0 0 1-5 0Zm-36.5 6.5a2.5 2.5 0 1 0 0 5 2.5 2.5 0 0 0 0-5Zm10.5 2.5a2.5 2.5 0 1 1 5 0 2.5 2.5 0 0 1-5 0Zm15.5-2.5a2.5 2.5 0 1 0 0 5 2.5 2.5 0 0 0 0-5Zm10.5 2.5a2.5 2.5 0 1 1 5 0 2.5 2.5 0 0 1-5 0Zm-36.5 6.5a2.5 2.5 0 1 0 0 5 2.5 2.5 0 0 0 0-5Zm10.5 2.5a2.5 2.5 0 1 1 5 0 2.5 2.5 0 0 1-5 0Zm15.5-2.5a2.5 2.5 0 1 0 0 5 2.5 2.5 0 0 0 0-5Zm10.5 2.5a2.5 2.5 0 1 1 5 0 2.5 2.5 0 0 1-5 0Z" fill="currentColor"/></svg>
